X:0858
T:"Lannigan's Ball"       (jig)           0858
C:after Chief F. O'Neill
N:added anacrucis to first part  to correct typesetting error
B:O'Neill's Music Of Ireland (The 1850) Lyon & Healy, Chicago, 1903 edition
Z:FROM O'NEILL'S TO NOTEWORTHY, FROM NOTEWORTHY TO ABC, MIDI AND .TXT BY VINCE
BRENNAN June 2003 (HTTP://WWW.SOSYOURMOM.COM)
I:abc2nwc
M:6/8
L:1/8
K:G
D|EFE G2A|B2A B^cd|D2E F2G|ABA AFD|
EFE G2A|B2A B^c^d|edB cBA|BGE E2:|
|:d|e2f gfg|eag fe^d|e2f gfg|fdB B3|
e2f gfg|eag fe^d|edB cBA|BGE E2:|
